sharp/svg/flare.svg

<svg xmlns="http://www.w3.org/2000/svg" width="24" height="24"><path fill="none" d="M0 0h24v24H0V0z"/><g fill="currentColor"><path d="M7 11H1v2h6v-2zm2.17-3.24L7.05 5.64 5.64 7.05l2.12 2.12 1.41-1.41zM13 1h-2v6h2V1zm5.36 6.05l-1.41-1.41-2.12 2.12 1.41 1.41 2.12-2.12zM17 11v2h6v-2h-6zm-5-2c-1.66 0-3 1.34-3 3s1.34 3 3 3 3-1.34 3-3-1.34-3-3-3zm2.83 7.24l2.12 2.12 1.41-1.41-2.12-2.12-1.41 1.41zm-9.19.71l1.41 1.41 2.12-2.12-1.41-1.41-2.12 2.12zM11 23h2v-6h-2v6z"/></g></svg>

<?xml version="1.0" encoding="utf-8"?>
<!-- Generator: Adobe Illustrator 19.1.0, SVG Export Plug-In . SVG Version: 6.00 Build 0)  -->
<svg version="1.1" xmlns="http://www.w3.org/2000/svg" xmlns:xlink="http://www.w3.org/1999/xlink" x="0px" y="0px" width="24px"
	 height="24px" viewBox="0 0 24 24" enable-background="new 0 0 24 24" xml:space="preserve">
<g id="Bounding_Boxes">
	<g id="ui_x5F_spec_x5F_header_copy_3">
	</g>
	<path fill="none" d="M0,0h24v24H0V0z"/>
</g>
<g id="Sharp" fill="currentColor">
	<g id="ui_x5F_spec_x5F_header_copy_2">
	</g>
	<path d="M7,11H1v2h6V11z M9.17,7.76L7.05,5.64L5.64,7.05l2.12,2.12L9.17,7.76z M13,1h-2v6h2V1z M18.36,7.05l-1.41-1.41l-2.12,2.12
		l1.41,1.41L18.36,7.05z M17,11v2h6v-2H17z M12,9c-1.66,0-3,1.34-3,3s1.34,3,3,3s3-1.34,3-3S13.66,9,12,9z M14.83,16.24l2.12,2.12
		l1.41-1.41l-2.12-2.12L14.83,16.24z M5.64,16.95l1.41,1.41l2.12-2.12l-1.41-1.41L5.64,16.95z M11,23h2v-6h-2V23z"/>
</g>
</svg>
